!!!COM: third-eye-blind
!!!OTL: hows-it-going-to-be
!!!RNB: hooktheoryid: dJNgqO_Eorz
**kern	**text
*clefG2	*
*k[b-]	*
*M4/4	*
=1	=1
1r	F
=2	=2
[2.rL	F
4r]J	C
=3	=3
[4rL	.
2.r]J	Bb
=4	=4
1r	Bb
=5	=5
4r	F
8a	.
8b-	.
8a	.
8f	.
8r	.
8f	.
=6	=6
8a	F
8b-	.
8a	.
8f	.
8a	.
8b-	.
4cc	C
=7	=7
8r	.
8f	.
8a	Bb
8b-	.
8a	.
8f	.
8r	.
8f	.
=8	=8
8a	Bb
8b-	.
8a	.
8f	.
8a	.
8b-	.
4d	.
=9	=9
4r	F
8a	.
8b-	.
8a	.
8f	.
8r	.
8f	.
=10	=10
8a	F
8b-	.
8a	.
8f	.
8a	.
8b-	.
4cc	C
=11	=11
8r	.
8f	.
8a	Bb
8b-	.
8a	.
8f	.
8r	.
8f	.
=12	=12
8a	Bb
8b-	.
8a	.
8f	.
8a	.
8b-	.
4d	.
=13	=13
1r	.
*-	*-